src/img/icons/status-warning.svg

<svg width="32" height="32" viewBox="0 0 32 32" fill="none" xmlns="http://www.w3.org/2000/svg">
<path d="M3.33145 28C3.08102 28 2.85607 27.9389 2.65661 27.8165C2.45715 27.6941 2.30214 27.5327 2.19158 27.3322C2.07634 27.1333 2.01293 26.9178 2.00136 26.6858C1.98978 26.4539 2.05233 26.2241 2.18899 25.9966L14.8372 4.1478C14.9741 3.92027 15.1453 3.75208 15.3507 3.64324C15.5563 3.5344 15.7727 3.47998 16 3.47998C16.2273 3.47998 16.4437 3.5344 16.6493 3.64324C16.8547 3.75208 17.0259 3.92027 17.1628 4.1478L29.811 25.9966C29.9477 26.2241 30.0102 26.4539 29.9986 26.6858C29.9871 26.9178 29.9237 27.1333 29.8084 27.3322C29.6979 27.5327 29.5428 27.6941 29.3434 27.8165C29.1439 27.9389 28.919 28 28.6686 28H3.33145Z" fill="#FFCC2C"/>
<path d="M14.931 10.1805C15.218 9.89318 15.5742 9.74951 15.9995 9.74951C16.4245 9.74951 16.7808 9.89318 17.0685 10.1805C17.3562 10.4682 17.5 10.8245 17.5 11.2495L17.4995 18.25C17.4995 18.675 17.3558 19.0312 17.0685 19.3185C16.7815 19.6062 16.4253 19.75 16 19.75C15.575 19.75 15.2187 19.6062 14.931 19.3185C14.6433 19.0312 14.4995 18.675 14.4995 18.25L14.5 11.2495C14.5 10.8245 14.6437 10.4682 14.931 10.1805Z" fill="#131212"/>
<path d="M16 22.0006C15.5042 22.0006 15.0886 22.1683 14.7532 22.5037C14.4177 22.8392 14.25 23.2548 14.25 23.7505C14.25 24.2463 14.4177 24.6619 14.7532 24.9974C15.0886 25.3325 15.5042 25.5 16 25.5C16.4958 25.5 16.9114 25.3325 17.2468 24.9974C17.5823 24.6619 17.75 24.2463 17.75 23.7505C17.75 23.2548 17.5823 22.8392 17.2468 22.5037C16.9114 22.1683 16.4958 22.0006 16 22.0006Z" fill="#131212"/>
</svg>

<svg xmlns="http://www.w3.org/2000/svg" width="32" height="32" fill="none" viewBox="0 0 32 32">
  <path fill="#FFCC2C" d="M3.331 28c-.25 0-.475-.061-.674-.183a1.293 1.293 0 0 1-.465-.485 1.411 1.411 0 0 1-.19-.646 1.205 1.205 0 0 1 .187-.69L14.837 4.149A1.325 1.325 0 0 1 16 3.48a1.325 1.325 0 0 1 1.163.668L29.81 25.997c.137.227.2.457.188.689a1.41 1.41 0 0 1-.19.646c-.111.2-.266.362-.466.485-.2.122-.424.183-.674.183H3.33Z"/>
  <path fill="#131212" d="M14.931 10.18A1.45 1.45 0 0 1 16 9.75c.424 0 .78.143 1.069.43.287.288.431.645.431 1.07v7c0 .425-.144.781-.431 1.069A1.449 1.449 0 0 1 16 19.75c-.425 0-.781-.144-1.069-.431a1.45 1.45 0 0 1-.431-1.069v-7c0-.425.144-.782.431-1.07ZM16 22c-.496 0-.911.168-1.247.504a1.693 1.693 0 0 0-.503 1.246c0 .496.168.912.503 1.247.336.335.751.503 1.247.503.496 0 .911-.168 1.247-.503.335-.335.503-.75.503-1.247 0-.495-.168-.91-.503-1.246A1.693 1.693 0 0 0 16 22Z"/>
</svg>
